frontend/public/svg/interface/checklist.svg

<svg width="166" height="165" viewBox="0 0 166 165" fill="none" xmlns="http://www.w3.org/2000/svg">
<path d="M140.48 42.2645C139.747 41.3742 137.253 41.7282 136.037 42.0403C135.037 42.4045 134.133 42.9949 133.398 43.7654C133.216 43.9272 133.035 44.0882 132.855 44.2414C106.655 66.44 81.2413 88.3469 58.3313 112.283C57.8716 112.763 57.387 113.215 56.716 113.844C56.367 114.17 55.9698 114.54 55.5023 114.983C52.6316 111.831 46.0679 104.392 40.7768 98.3971C37.9983 95.2497 35.5744 92.5031 34.2288 90.9936C33.4843 90.1256 32.7867 89.2184 32.139 88.276C31.6999 87.661 31.2452 87.024 30.7692 86.4203C29.8974 85.313 28.273 83.2559 25.9768 84.8392C24.031 86.187 24.7709 88.1022 25.6264 89.628C25.7264 89.8039 25.8243 89.9827 25.9215 90.1614C26.2685 90.8414 26.6719 91.4911 27.1274 92.1037C31.197 97.2479 44.0512 113.039 48.301 117.716C51.7186 121.475 53.9219 122.976 56.157 123.059C56.218 123.059 56.2798 123.059 56.3408 123.059C58.8945 123.059 61.5006 121.083 64.853 117.909C82.4968 101.195 98.4318 86.2721 113.569 72.2928C118.4 67.8303 123.454 63.4458 128.342 59.2046C131.363 56.5842 134.485 53.8744 137.525 51.1732C139.005 49.8595 140.382 48.5486 140.98 46.9816C141.486 45.6565 141.38 43.3562 140.48 42.2645Z" fill="black"/>
<path d="M126.966 164.261H119.903C118.214 163.856 116.499 163.573 114.77 163.414C99.4759 163.037 84.1808 162.615 68.8843 162.469C57.3644 162.359 45.8211 162.232 34.3245 162.823C12.9304 163.927 0.186098 146.952 1.73249 132.119C2.16875 127.938 1.78216 123.667 1.7247 119.438C1.37782 93.9058 0.95501 68.3747 0.710283 42.8408C0.656372 37.2078 0.652109 31.4705 1.60832 25.9518C3.87045 12.8996 15.643 3.63052 30.1727 3.22832C53.1097 2.5899 76.0545 2.24084 98.9936 1.67903C108.871 1.43714 118.753 1.14778 128.615 0.568239C144.304 -0.353922 160.005 8.05619 162.27 26.6519C163.858 39.6778 164.768 52.8391 165.045 65.9601C165.512 88.0714 165.308 110.199 165.246 132.319C165.208 145.626 154.023 159.291 140.867 162.148C136.296 163.143 131.603 163.574 126.966 164.261ZM79.2749 154.969C85.0328 155.232 90.7877 155.587 96.5484 155.74C109.33 156.077 122.092 157.911 134.901 155.674C147.63 153.45 157.478 142.928 157.432 131.348C157.359 113.112 157.355 94.8758 157.42 76.6402C157.463 61.1237 157.593 45.6654 154.582 30.2746C151.798 16.0428 143.165 9.20244 128.625 9.11306C106.743 8.97899 84.8576 9.29538 62.9768 9.77349C52.4074 10.0047 41.8302 10.7971 31.2998 11.7916C23.5835 12.5208 16.5183 15.0603 12.6033 22.5887C9.73731 28.2624 8.29648 34.5487 8.40538 40.9042C8.42028 70.0814 8.73526 99.2601 8.526 128.439C8.40683 144.998 17.9306 155.081 34.4444 154.983C49.3884 154.893 64.3317 154.963 79.2749 154.969V154.969Z" fill="black"/>
</svg>

<svg xmlns="http://www.w3.org/2000/svg" width="166" height="165" fill="none" viewBox="0 0 166 165"><path fill="#000" d="M140.48 42.265c-.733-.89-3.227-.537-4.443-.225-1 .364-1.904.955-2.639 1.725q-.273.245-.543.476c-26.2 22.199-51.614 44.106-74.524 68.042-.46.48-.944.932-1.615 1.561-.349.326-.746.696-1.214 1.139-2.87-3.152-9.434-10.591-14.725-16.586-2.779-3.147-5.203-5.894-6.548-7.403a32 32 0 0 1-2.09-2.718c-.44-.615-.894-1.252-1.37-1.856-.872-1.107-2.496-3.164-4.792-1.58-1.946 1.347-1.206 3.262-.35 4.788q.149.265.295.533.52 1.022 1.205 1.943c4.07 5.144 16.924 20.935 21.174 25.612 3.418 3.759 5.62 5.26 7.856 5.343h.184c2.553 0 5.16-1.976 8.512-5.15 17.644-16.714 33.579-31.637 48.716-45.616 4.831-4.463 9.885-8.847 14.773-13.088 3.021-2.62 6.143-5.33 9.183-8.032 1.48-1.314 2.857-2.624 3.455-4.191.506-1.325.4-3.626-.5-4.718"/><path fill="#000" d="M126.966 164.261h-7.063a36 36 0 0 0-5.133-.847c-15.294-.377-30.59-.799-45.886-.945-11.52-.11-23.063-.237-34.56.354C12.93 163.927.187 146.952 1.733 132.119c.437-4.181.05-8.452-.007-12.681C1.378 93.906.955 68.375.71 42.841c-.054-5.633-.058-11.37.898-16.89C3.87 12.9 15.643 3.632 30.173 3.229c22.937-.638 45.882-.987 68.82-1.549 9.878-.242 19.76-.531 29.622-1.11 15.689-.923 31.39 7.487 33.655 26.083 1.588 13.026 2.498 26.187 2.775 39.308.467 22.111.263 44.239.201 66.359-.038 13.307-11.223 26.972-24.379 29.829-4.571.995-9.264 1.426-13.901 2.113m-47.691-9.292c5.758.263 11.513.618 17.273.771 12.782.337 25.544 2.171 38.353-.066 12.729-2.224 22.577-12.746 22.531-24.326a7229 7229 0 0 1-.012-54.708c.043-15.516.173-30.975-2.838-46.365-2.784-14.232-11.417-21.073-25.957-21.162-21.882-.134-43.767.182-65.648.66-10.57.232-21.147 1.024-31.677 2.019-7.716.729-14.782 3.268-18.697 10.797a39.14 39.14 0 0 0-4.198 18.315c.015 29.177.33 58.356.121 87.535-.12 16.559 9.405 26.642 25.918 26.544 14.944-.09 29.888-.02 44.83-.014"/></svg>
